X: 792
T: AJ's
R: jig
M: 6/8
K: Dmajor
f3 ede|fed BAB|dBA FED|DED BAB|
(3DDD D EDB|ABd fed|efd BdA|1 adB cde:|2 adB cdf||
e2 d zcd|c2 B zcd|ABd FED|DED BAB|
D2 D EDB|ABd fed|efd BdA|1 adB cdf:|2 adB cde||

